!!!OTL: IM WALD UND AUF DER HAIDE
!!!ARE: Europa, Mitteleuropa, Deutschland
!!!SCT: F0658
!!!YEM: Copyright 1995, estate of Helmut Schaffrath.
**kern
*ICvox
*Ivox
*M6/8
*k[]
*C:
{8G
=1
4G
8G
4G
8G
=2
4G
8e
8c
8r}
{8c
=3
4A
8A
4A
8A
=4
4A
8f
8d
8r}
{8c
=5
4B
8B
8B
8c
8d
=6
4.e
8f
8e}
{8d
=7
4c
8c
8B
8A
8B
=8
4c
4.r}
{16c
16d
=9
4e
16e
16e
4e
16e
16e
=10
2g
8f}
{8e
=11
4d
8d
8d
8c
8d
=12
4e
4.r}
{16c
16d
=13
4e
16e
16e
4e
16e
16e
=14
2g
8f}
{8e
=15
4d
8d
8d
8c
8d
=16
4c
4.r}
==
!!!AGN: Staende -, Jaeger - Lied
!!!ONB: ESAC (Essen Associative Code) Database: FINK
!!!AMT: compound duple
!!!AIN: vox
!!!EED: Helmut Schaffrath
!!!EEV: 1.0
*-
